X:1
T:Title
%%score { ( 1 3 ) | ( 2 4 ) }
L:1/8
Q:1/4=100
M:6/8
K:Db
V:1 treble nm="Grand Piano"
V:3 treble 
V:2 bass 
V:4 bass 
V:1
 [FA][FB][Fc] [Fd]2 [FB] | [Gd]3 c3 | ABc e2 [GA] | [FA]6 | [FA][FB][Fc] [Fd]2 [FB] | [Ec]3 [Ae]3 | %6
w: Robert~Harkness * * * *||||||
 [=Ge][FGd][EGc] [DGB]2 [EGc] | A3- [A,GA]3 | [Fd]2 [FB] [Gc]3 | [GB]2 [EG] A3 | GAB AGF | %11
w: |||||
 [DF]2 [DE] [CE]3 | [Fd]2 [FB] [Gc]3 | .[GB]3[K:bass][K:treble] z3 | dBG FGA | .F3[K:bass] z3 |] %16
w: |||||
V:2
 [D,A,][D,A,][D,A,] [D,A,]2 [D,A,] | [E,A,]3[K:treble] [A,EG]3 | %2
 [A,CG][A,DG][A,EG] [A,CG]2[K:bass] [E,C] | [D,D]6 | [D,A,][D,A,][D,A,] [D,A,]2 [D,A,] | %5
 [E,A,]3 [E,C]3 | [E,B,]E,E, E,2 E, | A,3 A,,3 | [D,A,]2 [D,A,] [E,A,]3 | %9
 [A,,A,]2 [C,A,] [F,A,D]3 | z3 .[F,D]3 | [B,,=G,]2 [E,G,] [A,,A,]3 | [D,A,]2 [D,A,] [E,A,]3 | %13
 .[A,,A,]2 [E,A,E] [F,A,D]3 | [G,B,D][G,DG][G,B,E] A,-[E,A,C][F,A,D] | [A,D]2 A,, D,3 |] %16
V:3
 x6 | x6 | x6 | x6 | x6 | x6 | x6 | [CE]3 z3 | x6 | x6 | x6 | x6 | x6 | %13
 z[K:bass] C,[K:treble]G A3 | x6 | z[K:bass] A,,[G,CE] [F,D]3 |] %16
V:4
 x6 | x3[K:treble] x3 | x5[K:bass] x | x6 | x6 | x6 | x6 | x6 | x6 | x6 | %10
 [E,A,E][F,A,D][G,D] A,-[E,A,C][D,A,D] | x6 | x6 | x6 | z3 .[D,D]3 | x6 |] %16

